X: 38
T:A Love of Beauty. ST.38
T:Love of Beauty. ST.38
M:C
L:1/8
Q:100
S:Annonymous Staffordshire MS, Early 19thC.
R:Air
O:England
A:Staffordshire
N:"Andante"
Z:vmp.Tim Willets
K:G
B3GG2G2|d2cc2B2|g3d (fedc)|(BAG)F(G3A)|\
B3AA2G2|d3cc2B2|!
g3d (ge).d.c|cA(d>F) G2z2|\
A3GF2F2|c3BB2A2|"pa"A3AB2B2|c2^c>d"pa"(d3^c)|!
B3AA2G2|d3cc2B2|g3d (fe).c.A|AG "pa"d>FG4|\
g3f (a/2g/2).f/2.e/2 (d/2c/2)(B/2A/2)|(AG) "pa"d>FG4|]
